src/lib/packages/icons/src/assets/line/taxi.svg

<svg width="24" height="24" viewBox="0 0 24 24" fill="none" xmlns="http://www.w3.org/2000/svg">
<path d="M20.05 10.43L19.96 9.75H21C21.41 9.75 21.75 9.41 21.75 9C21.75 8.59 21.41 8.25 21 8.25H19.77L19.66 7.39C19.42 5.92 19.14 4.25 15.96 4.25H8.03999C4.85999 4.25 4.57999 5.92 4.32999 7.41L4.21999 8.25H2.98999C2.57999 8.25 2.23999 8.59 2.23999 9C2.23999 9.41 2.57999 9.75 2.98999 9.75H4.02999L3.93999 10.43C3.44999 10.6 3.08999 10.87 2.87999 11.11C2.37999 11.68 2.15999 12.47 2.26999 13.34L2.66 16.46C2.8 17.6 3.19999 19.04 4.73999 19.54V20.99C4.73999 21.4 5.07999 21.74 5.48999 21.74C5.89999 21.74 6.23999 21.4 6.23999 20.99V19.74H17.74V20.99C17.74 21.4 18.08 21.74 18.49 21.74C18.9 21.74 19.24 21.4 19.24 20.99V19.54C20.78 19.03 21.18 17.6 21.32 16.46L21.71 13.34C21.82 12.47 21.6 11.68 21.1 11.11C20.88 10.86 20.53 10.6 20.04 10.43H20.05ZM8.03999 5.75H15.96C17.87 5.75 17.95 6.22 18.18 7.61L18.52 10.25H5.48999L5.81999 7.63C6.04999 6.22 6.12999 5.75 8.03999 5.75ZM19.84 16.28C19.65 17.77 19.21 18.25 18 18.25H5.99999C4.78999 18.25 4.34 17.77 4.16 16.28L3.76999 13.16C3.71999 12.73 3.79999 12.35 4.01999 12.11C4.22999 11.87 4.55999 11.75 5.00999 11.75H19C19.45 11.75 19.78 11.87 19.99 12.11C20.2 12.35 20.29 12.72 20.24 13.16L19.85 16.28H19.84ZM9.74999 3C9.74999 2.59 10.09 2.25 10.5 2.25H13.5C13.91 2.25 14.25 2.59 14.25 3C14.25 3.41 13.91 3.75 13.5 3.75H10.5C10.09 3.75 9.74999 3.41 9.74999 3ZM18.03 14.47C18.17 14.61 18.25 14.8 18.25 15C18.25 15.1 18.23 15.2 18.19 15.29C18.15 15.38 18.1 15.46 18.03 15.53C17.89 15.67 17.7 15.75 17.5 15.75C17.3 15.75 17.11 15.67 16.97 15.53C16.9 15.46 16.85 15.38 16.81 15.29C16.77 15.2 16.75 15.1 16.75 15C16.75 14.8 16.83 14.61 16.97 14.47C17.25 14.19 17.75 14.19 18.03 14.47ZM7.02999 14.47C7.16999 14.61 7.24999 14.8 7.24999 15C7.24999 15.1 7.22999 15.19 7.18999 15.29C7.14999 15.38 7.09999 15.46 7.02999 15.53C6.95999 15.6 6.87999 15.65 6.78999 15.69C6.69999 15.73 6.59999 15.75 6.49999 15.75C6.29999 15.75 6.10999 15.67 5.96999 15.53C5.89999 15.46 5.84999 15.38 5.80999 15.29C5.76999 15.19 5.74999 15.1 5.74999 15C5.74999 14.9 5.76999 14.8 5.80999 14.71C5.84999 14.62 5.89999 14.54 5.96999 14.47C6.03999 14.4 6.11999 14.35 6.20999 14.31C6.39999 14.23 6.59999 14.23 6.78999 14.31C6.87999 14.34 6.95999 14.4 7.02999 14.47ZM15.25 15C15.25 15.41 14.91 15.75 14.5 15.75H9.49999C9.08999 15.75 8.74999 15.41 8.74999 15C8.74999 14.59 9.08999 14.25 9.49999 14.25H14.5C14.91 14.25 15.25 14.59 15.25 15Z" fill="currentColor"/>
</svg>

<svg xmlns="http://www.w3.org/2000/svg" width="24" height="24" fill="none"><path fill="currentColor" d="m20.05 10.43-.09-.68H21c.41 0 .75-.34.75-.75s-.34-.75-.75-.75h-1.23l-.11-.86c-.24-1.47-.52-3.14-3.7-3.14H8.04c-3.18 0-3.46 1.67-3.71 3.16l-.11.84H2.99c-.41 0-.75.34-.75.75s.34.75.75.75h1.04l-.09.68c-.49.17-.85.44-1.06.68-.5.57-.72 1.36-.61 2.23l.39 3.12c.14 1.14.54 2.58 2.08 3.08v1.45c0 .41.34.75.75.75s.75-.34.75-.75v-1.25h11.5v1.25c0 .41.34.75.75.75s.75-.34.75-.75v-1.45c1.54-.51 1.94-1.94 2.08-3.08l.39-3.12c.11-.87-.11-1.66-.61-2.23-.22-.25-.57-.51-1.06-.68h.01ZM8.04 5.75h7.92c1.91 0 1.99.47 2.22 1.86l.34 2.64H5.49l.33-2.62c.23-1.41.31-1.88 2.22-1.88Zm11.8 10.53c-.19 1.49-.63 1.97-1.84 1.97H6c-1.21 0-1.66-.48-1.84-1.97l-.39-3.12c-.05-.43.03-.81.25-1.05.21-.24.54-.36.99-.36H19c.45 0 .78.12.99.36.21.24.3.61.25 1.05l-.39 3.12h-.01ZM9.75 3c0-.41.34-.75.75-.75h3c.41 0 .75.34.75.75s-.34.75-.75.75h-3c-.41 0-.75-.34-.75-.75Zm8.28 11.47a.75.75 0 1 1-1.06 0c.28-.28.78-.28 1.06 0Zm-11 0a.75.75 0 1 1-1.059 1.06.75.75 0 0 1 1.059-1.06Zm8.22.53c0 .41-.34.75-.75.75h-5c-.41 0-.75-.34-.75-.75s.34-.75.75-.75h5c.41 0 .75.34.75.75Z"/></svg>
